!!!OTL: Das Schwabentoechterlein.
!!!OTL-incipit: Es hatt ein Schwab ein Toechterlein,
!!!ARE: Europa, Mitteleuropa, Deutschland
!!!YOR: 4, S. 52
!!    1611 gedruckt in Coburg; Satz: Melchior Franck
!!!SCT: Q0073H
!!!TXL: @@DE
!!!YEM: Copyright 1995, estate of Helmut Schaffrath.
**kern	**text
*ICvox	*
*M2/4	*
*k[f#]	*
*G:	*
!LO:TX:a:t=Franck 1611	!
{8g	Es
=1	=1
8g	hatt
8g	ein
8g	Schwab
8g	ein
=2	=2
8a	Töchter-
8a	.
8a}	-lein,
{8a	das
=3	=3
8b	wolt
8dd	nicht
8cc	len-
8b	-ger
=4	=4
4a	die-
8a}	-nen,
{8a	es
=5	=5
8dd	wolt
8dd	nit
8b	lengr
8b	ein
=6	=6
8g	Mägd-
8g	lein
4cc}	ſeyn.
=7	=7
{4cc	Ho
4dd	Narr
=8	=8
8.ee	tummel
16ee	dich
8cc	ʒur
8cc	Hertʒallrliebſten
=9	=9
8b	.
8g	.
8a	.
8a	.
=10	=10
4.g}	mein.
==	==
!!!AGN: Ballade, Weglaufen, Schwangerschaft, Rueckkehr
!! Fassung aus einem Quodlibet von Melchior Franck. Eingeklammerte
!!    Noten gespielt. Schlusspause korrigiert.
!!!ONB: ESAC (Essen Associative Code) Database: BALLADE
!!!AMT: simple duple
!!!AIN: vox
!!!EED: Helmut Schaffrath
!!!EEV: 1.0
!!!source: Deutsche Volkslieder mit ihren Melodien. Herausgegeben vom Deutschen Volksliedarchiv. Vierter Band. Berlin 1959.
!!!page: 52
!!!ENC: Anna Maria Matuszewska
!!!EEV: 2025/02/21
*-	*-
